icons/curl.svg

<!--
  - The MIT License (MIT)
  -
  - Copyright (c) 2015-2024 Elior "Mallowigi" Boukhobza
  -
  - Permission is hereby granted, free of charge, to any person obtaining a copy
  - of this software and associated documentation files (the "Software"), to deal
  - in the Software without restriction, including without limitation the rights
  - to use, copy, modify, merge, publish, distribute, sublicense, and/or sell
  - copies of the Software, and to permit persons to whom the Software is
  - furnished to do so, subject to the following conditions:
  -
  - The above copyright notice and this permission notice shall be included in all
  - copies or substantial portions of the Software.
  -
  - THE SOFTWARE IS PROVIDED "AS IS", WITHOUT WARRANTY OF ANY KIND, EXPRESS OR
  - IMPLIED, INCLUDING BUT NOT LIMITED TO THE WARRANTIES OF MERCHANTABILITY,
  - FITNESS FOR A PARTICULAR PURPOSE AND NONINFRINGEMENT. IN NO EVENT SHALL THE
  - AUTHORS OR COPYRIGHT HOLDERS BE LIABLE FOR ANY CLAIM, DAMAGES OR OTHER
  - LIABILITY, WHETHER IN AN ACTION OF CONTRACT, TORT OR OTHERWISE, ARISING FROM,
  - OUT OF OR IN CONNECTION WITH THE SOFTWARE OR THE USE OR OTHER DEALINGS IN THE
  - SOFTWARE.
  -
  -->

<svg  version="1.1" xmlns="http://www.w3.org/2000/svg" viewBox="0 0 512 512" width="16px" height="16px">
  <path fill="#9575CD" data-iconColor="cURL"
        d="M328.7122192,115.5570679c15.1253662-3.3294678,27.725769-16.1596069,28.6618042-33.9925537c1.5108643-28.7836914-28.4821777-49.1814575-53.8579102-36.6278076c-17.7320557,8.7722778-23.9834595,29.0739746-18.0079346,46.0493164l-177.9229736,305.008667c-15.8415527,3.2901611-29.2184448,16.5993042-30.208313,34.930542c-1.5641479,28.9660645,28.9547729,48.9089966,54.8021851,35.8110352c18.0136108-9.1282349,24.4121704-29.5716553,18.4258423-46.4992065L328.7122192,115.5570679z M331.0332031,60.8670654c13.4880371,8.1595459,13.5423584,27.9715576,0.0974731,35.5759888c-13.4448242,7.6044922-30.3964233-2.6502686-30.4396362-18.4143066C300.6478271,62.2647705,317.545166,52.7075806,331.0332031,60.8670654z M104.7598267,450.1390381c-13.727417-7.9140015-13.727417-27.8063965,0-35.7203979c13.727356-7.9140015,30.9797974,2.0322266,30.9797974,17.8602295S118.4871826,458.0530396,104.7598267,450.1390381z M18.8482666,216.8021851c25.1309814,14.4882812,56.715332-3.7203979,56.715332-32.6970215s-31.5843506-47.1853638-56.715332-32.6970215C-6.2827148,165.8964233-6.2827148,202.3138428,18.8482666,216.8021851z M27.4396362,166.2449341c13.727417-7.9140015,30.9798584,2.0322266,30.9798584,17.8602295s-17.2524414,25.7741699-30.9798584,17.8601685C13.7122803,194.0513306,13.7122803,174.1589355,27.4396362,166.2449341z M161.0341187,140.6153564c25.1309814,14.4882812,56.715332-3.7203979,56.715332-32.6970215s-31.5843506-47.1853638-56.715332-32.6970215C135.9030762,89.7095947,135.9030762,126.1270752,161.0341187,140.6153564z M169.6254883,90.0581055c13.727417-7.9140015,30.9798584,2.0322266,30.9798584,17.8602295s-17.2524414,25.774231-30.9798584,17.8602295C155.8981323,117.864563,155.8981323,97.9721069,169.6254883,90.0581055z M18.8492432,283.4244385c-25.1309814,14.4883423-25.1309814,50.9057617,0,65.394043c25.1310425,14.4883423,56.715332-3.7203979,56.715332-32.6970215S43.9802856,268.9361572,18.8492432,283.4244385z M27.4406738,333.9816895c-13.727417-7.9140015-13.727417-27.8063965,0-35.7203979s30.9797974,2.0321655,30.9797974,17.8601685S41.1680908,341.8956909,27.4406738,333.9816895z M511.4295654,73.2991943c-4.9059448-28.40271-38.6737671-41.6460571-60.6362915-23.7807007c-13.0958862,10.652771-16.1855469,27.6436157-10.8535156,41.8617554L262.6911011,395.135498c-16.3718262,3.1721802-30.1848755,17.0532837-30.7601929,35.9331665c-0.8834229,28.991394,30.0983276,48.199585,55.6333008,34.4916992c17.3190308-9.2973022,23.3867798-29.0458984,17.8169556-45.5629272L483.229187,115.4321289C501.3138428,111.515564,515.0042725,93.9951172,511.4295654,73.2991943z M480.2788086,59.7106934c15.0919189,4.8277588,19.34552,24.2823486,7.6380615,34.9342041c-11.7073975,10.6518555-30.6747437,4.5844116-34.0592651-10.8952026C450.4731445,68.2700806,465.1868896,54.8829956,480.2788086,59.7106934z M279.4553223,450.4552002c-13.9456787,7.4863892-30.8659058-3.0038452-30.3834229-18.8372192c0.4824829-15.833313,18.0090942-25.2420654,31.472229-16.8952026C294.0072632,423.0697021,293.4008789,442.968811,279.4553223,450.4552002z"/>
</svg>

<svg xmlns="http://www.w3.org/2000/svg" viewBox="0 0 512 512"><path fill="#9575cd" d="M328.712 115.557c15.126-3.33 27.726-16.16 28.662-33.992 1.51-28.784-28.482-49.182-53.858-36.628-17.732 8.772-23.983 29.074-18.008 46.049L107.585 395.995c-15.841 3.29-29.218 16.599-30.208 34.93-1.564 28.966 28.955 48.91 54.802 35.811 18.014-9.128 24.412-29.571 18.426-46.499zm2.321-54.69c13.488 8.16 13.543 27.972.098 35.576-13.445 7.605-30.397-2.65-30.44-18.414s16.854-25.321 30.342-17.162M104.76 450.14c-13.728-7.914-13.728-27.806 0-35.72s30.98 2.032 30.98 17.86-17.253 25.774-30.98 17.86M18.848 216.802c25.131 14.488 56.716-3.72 56.716-32.697s-31.585-47.185-56.716-32.697c-25.13 14.488-25.13 50.906 0 65.394m8.592-50.557c13.727-7.914 30.98 2.032 30.98 17.86s-17.253 25.774-30.98 17.86-13.728-27.806 0-35.72m133.594-25.63c25.131 14.489 56.715-3.72 56.715-32.697s-31.584-47.185-56.715-32.697c-25.13 14.489-25.13 50.906 0 65.394m8.591-50.557c13.728-7.914 30.98 2.032 30.98 17.86s-17.252 25.775-30.98 17.86c-13.727-7.913-13.727-27.806 0-35.72M18.85 283.424c-25.13 14.489-25.13 50.906 0 65.394 25.131 14.489 56.716-3.72 56.716-32.697s-31.585-47.185-56.716-32.697m8.592 50.558c-13.728-7.914-13.728-27.807 0-35.72s30.98 2.031 30.98 17.86-17.253 25.774-30.98 17.86M511.43 73.299c-4.906-28.403-38.674-41.646-60.637-23.78-13.096 10.652-16.185 27.643-10.853 41.861L262.69 395.135c-16.372 3.173-30.185 17.054-30.76 35.934-.884 28.991 30.098 48.2 55.633 34.491 17.32-9.297 23.387-29.046 17.817-45.563l177.85-304.565c18.085-3.916 31.775-21.437 28.2-42.133m-31.151-13.588c15.092 4.827 19.345 24.282 7.638 34.934-11.708 10.652-30.675 4.584-34.06-10.895-3.384-15.48 11.33-28.867 26.422-24.04M279.455 450.455c-13.945 7.487-30.866-3.004-30.383-18.837.482-15.833 18.009-25.242 31.472-16.895s12.857 28.246-1.089 35.732" data-iconColor="cURL"/></svg>
